images/svg/snap.svg

<svg width="14" height="11" viewBox="0 0 14 11" fill="none" xmlns="http://www.w3.org/2000/svg">
<rect x="0.538574" y="0.385742" width="12.9231" height="6.46154" rx="3.23077" fill="white"/>
<path fill-rule="evenodd" clip-rule="evenodd" d="M10.0309 8.91273C10.7417 7.91741 11.0054 6.66399 11.0356 5.63476C11.0457 5.29136 10.7345 5.04024 10.3943 5.08862C10.0879 5.1322 9.87034 5.4054 9.85116 5.71428C9.81172 6.34935 9.63289 7.09288 9.2121 7.68216C8.76558 8.30745 7.9696 8.86488 6.57468 8.82586C6.07497 8.81188 5.61075 9.15443 5.56723 9.65244C5.52918 10.088 5.82866 10.4882 6.26463 10.5207C8.0437 10.653 9.25816 9.99491 10.0309 8.91273Z" fill="white"/>
</svg>

<svg width="14" height="11" fill="none" xmlns="http://www.w3.org/2000/svg"><rect x=".539" y=".386" width="12.923" height="6.462" rx="3.231" fill="#fff"/><path fill-rule="evenodd" clip-rule="evenodd" d="M10.03 8.913c.712-.996.975-2.249 1.006-3.278.01-.344-.301-.595-.642-.546-.306.043-.524.316-.543.625-.04.635-.218 1.379-.639 1.968-.446.625-1.242 1.183-2.637 1.144-.5-.014-.964.328-1.008.826-.038.436.262.836.698.869 1.779.132 2.993-.526 3.766-1.608z" fill="#fff"/></svg>
